src/assets/logo.svg

<svg width="100" height="100" viewBox="0 0 100 100" fill="none" xmlns="http://www.w3.org/2000/svg">
<path d="M74.3668 3.91035C64.2434 3.91035 55.8395 11.41 54.4164 21.1449H29.8926L9.9797 0L5.71466 4.01641L21.8449 21.1449H5.46954L40.2588 60.1316V94.1416H23.9356V100H62.9918V94.1416H46.1174V60.1316L63.2711 40.9084C66.5457 43.0689 70.3938 44.2379 74.3668 44.2379C85.4852 44.2379 94.5305 35.1924 94.5305 24.0742C94.5305 12.9561 85.485 3.91035 74.3668 3.91035ZM59.9856 35.791H26.3904L18.5488 27.0033H67.827L59.9856 35.791Z" fill="#978D58"/>
</svg>

<svg width="100" height="100" fill="none" xmlns="http://www.w3.org/2000/svg"><path d="M74.367 3.91c-10.124 0-18.528 7.5-19.95 17.235H29.892L9.98 0 5.715 4.016l16.13 17.129H5.47l34.789 38.987v34.01H23.936V100h39.056v-5.858H46.117v-34.01l17.154-19.224a20.131 20.131 0 0 0 11.096 3.33c11.118 0 20.163-9.046 20.163-20.164 0-11.118-9.045-20.164-20.163-20.164ZM59.986 35.791H26.39l-7.841-8.788h49.278l-7.841 8.788Z" fill="#978D58"/></svg>
